**kern	**kern	**dynam
*part1	*part1	*part1
*staff2	*staff1	*
*I"Piano	*	*
*clefF4	*clefG2	*
*k[]	*k[]	*
=1	=1	=1
*^	*^	*
4F	2GG	4B	2G	.
4E	.	4c	.	.
4F	4GG	4d)	4G 4B	.
*v	*v	*	*	*
=	=	=	=
[2C 2F	(2B 2d	4G	.
.	.	4G	.
4C] 4E	4c)	4G	.
*	*v	*v	*
=	=	=
4CC	4G 4c 4e 4g	.
4GG	4G 4c 4e 4g	.
4E	4G 4c 4e 4g	.
=	=	=
4EE	4B 4d 4e 4g#X	.
!	!LO:TX:b:i:t=cresc.	!
4BB	4B 4d 4e 4g#	.
4E	4B 4d 4e 4g#	.
=	=	=
4GG#X	4d 4e 4b	>
4E	4d 4e 4b	.
4B	4d 4e 4b	.
=	=	=
*	*^	*
4AA	(2g#X	4re	]
4E	.	4B 4e	.
4A	4a)	4c 4e	.
=	=	=	=
4FF#X	2.a	4re	.
4C	.	4c 4e-X	.
4F#X	.	4c 4e-	.
*	*v	*v	*
=	=	=
*-	*-	*-
!!!system-decoration: {(s1,s2)}
